icons/mini/funnel.svg

<svg width="20" height="20" viewBox="0 0 20 20" fill="none" xmlns="http://www.w3.org/2000/svg">
<path fill-rule="evenodd" clip-rule="evenodd" d="M2.62803 1.60102C5.02718 1.2056 7.48986 1 10 1C12.5101 1 14.9728 1.2056 17.372 1.60102C17.7342 1.66072 18 1.97389 18 2.34103V4.62868C18 5.22542 17.7629 5.79771 17.341 6.21967L12.659 10.9017C12.2371 11.3236 12 11.8959 12 12.4926V15.5291C12 16.2126 11.6893 16.859 11.1556 17.286L9.21852 18.8357C8.99339 19.0158 8.68496 19.0509 8.42511 18.926C8.16526 18.8011 8 18.5383 8 18.25V12.4926C8 11.8959 7.76295 11.3236 7.34099 10.9017L2.65901 6.21967C2.23705 5.79771 2 5.22542 2 4.62868V2.34103C2 1.97389 2.26578 1.66072 2.62803 1.60102Z" fill="#0F172A"/>
</svg>

<svg xmlns="http://www.w3.org/2000/svg" viewBox="0 0 20 20" fill="currentColor" aria-hidden="true" data-slot="icon">
  <path fill-rule="evenodd" d="M2.628 1.601C5.028 1.206 7.49 1 10 1s4.973.206 7.372.601a.75.75 0 0 1 .628.74v2.288a2.25 2.25 0 0 1-.659 1.59l-4.682 4.683a2.25 2.25 0 0 0-.659 1.59v3.037c0 .684-.31 1.33-.844 1.757l-1.937 1.55A.75.75 0 0 1 8 18.25v-5.757a2.25 2.25 0 0 0-.659-1.591L2.659 6.22A2.25 2.25 0 0 1 2 4.629V2.34a.75.75 0 0 1 .628-.74Z" clip-rule="evenodd"/>
</svg>
